svg/furkot/freepik/bus.svg

<svg viewBox="0 0 512 512" xmlns="http://www.w3.org/2000/svg"><path d="m471.074 126.407c-4.221-41.267-10.945-73.398-21.584-86.027-43.861-51.928-351.106-55.729-385.991 0-8.533 13.653-14.518 45.67-18.534 86.095-12.959 1.525-23.051 12.436-23.051 25.794v50.551c0 11.242 7.122 20.719 17.066 24.417-2.355 79.622-.443 162.691 3.084 204.004 0 31.891 21.424 26.601 21.424 26.601h20.082v34.429c0 13.653 14.074 24.701 31.414 24.701 17.362 0 31.437-11.048 31.437-24.701v-34.429h233.631v34.429c0 13.653 14.063 24.701 31.425 24.701 17.34 0 31.414-11.048 31.414-24.701v-34.429h6.599s25.214 3.459 26.829-11.56c0-41.199 2.594-132.506.455-218.692 10.57-3.311 18.284-13.051 18.284-24.77v-50.551c.012-13.676-10.569-24.77-23.984-25.862zm-332.538-78.62h235.918v35.692h-235.918zm3.368 369.402c-18.523 0-33.531-15.019-33.531-33.542 0-18.511 15.008-33.519 33.531-33.519s33.541 15.008 33.541 33.519c0 18.523-15.007 33.542-33.541 33.542zm231.287 0c-18.512 0-33.553-15.019-33.553-33.542 0-18.511 15.03-33.519 33.553-33.519s33.53 15.008 33.53 33.519c.012 18.523-15.007 33.542-33.53 33.542zm42.633-146.773h-318.658v-167.14h318.658z"/></svg>

<svg xmlns="http://www.w3.org/2000/svg" viewBox="0 0 512 512"><path d="M471.074 126.407C466.853 85.14 460.129 53.009 449.49 40.38 405.629-11.548 98.384-15.349 63.499 40.38 54.966 54.033 48.981 86.05 44.965 126.475 32.006 128 21.914 138.911 21.914 152.269V202.82C21.914 214.062 29.036 223.539 38.98 227.237 36.625 306.859 38.537 389.928 42.064 431.241 42.064 463.132 63.488 457.842 63.488 457.842H83.57V492.271C83.57 505.924 97.644 516.972 114.984 516.972 132.346 516.972 146.421 505.924 146.421 492.271V457.842H380.052V492.271C380.052 505.924 394.115 516.972 411.477 516.972 428.817 516.972 442.891 505.924 442.891 492.271V457.842H449.49C449.49 457.842 474.704 461.301 476.319 446.282 476.319 405.083 478.913 313.776 476.774 227.59 487.344 224.279 495.058 214.539 495.058 202.82V152.269C495.07 138.593 484.489 127.499 471.074 126.407ZM138.536 47.787H374.454V83.479H138.536V47.787ZM141.904 417.189C123.381 417.189 108.373 402.17 108.373 383.647 108.373 365.136 123.381 350.128 141.904 350.128S175.445 365.136 175.445 383.647C175.445 402.17 160.438 417.189 141.904 417.189ZM373.191 417.189C354.679 417.189 339.638 402.17 339.638 383.647 339.638 365.136 354.668 350.128 373.191 350.128S406.721 365.136 406.721 383.647C406.733 402.17 391.714 417.189 373.191 417.189ZM415.824 270.416H97.166V103.276H415.824V270.416Z"/></svg>
